!!!SOCIAL_FUNCTION: songs connected with ceremonies
!!!SOCIAL_FUNCTION2: Bear dance
!!!PDT:	1929
!!!LING_GROUP: Caddoan
!!!LANG: Non-Tone
!!!REG: Oklahoma
!!!COM: Anon.
!!!OTL: I Am Like a Bear
!!!ODT: <1920//
!!!MPN: Dog Chief [Simond Adams]
!!!MLC: Pawnee, Oklahoma, United States of America
!! Song was recorded either 1919 or 1920.
!!!AGN: monody
!!!AMT: irregular
!!!RWG: Transcribed pitches, durations, and meters are only approximate.
!! Drum not recorded
**kern
*ICvox
*Imale
*clefF4
*k[b-d-a-d-]
*M2/4
*MM138
8.c
16e-
4e-
*M5/4
=1
2.e-
4c
4c
*M3/4
=2
4c
4c
4c
*M4/4
=3
2.c
4r
=4
4e-
8r
8c
4c
4c
4d-
*M4/4
=5
2.e-
8c
8c
*M5/6
=6
4A-
4A-
4E-
4E-
8E-
8r
*M3/4
=7
4E-
4E-
4E-
=8
4E-
4E-
4r
*M5/4
=9
8A-
8F
4E-
8c
8A-
4E-;
4E-;
=10
4E-
4E-
4C
4C
8C
8r
*M4/4
=11
4E-
4E-
4E-
8E-
8E-
*M5/4
=12
4E-
4E-
2.E-
=13
4E-
4E-
4E-
4E-
8.E-
16e-
=14
4e-
4c
4c
4c
4d-
*M4/4
=15
2.e-
8c
8c
*M5/6
=16
4A-
4A-
4E-
4E-
8E-
8r
*M3/4
=17
4E-
4e-
4E-
=18
4E-
4E-
4r
*M5/6
=19
8A-
8F
4E-
8c
8A-
4E-;
4E-;
=20
4E-
4E-
4C
4C
8C
8r
*M4/4
=21
4E-
4E-
4E-
8E-
8E-
=22
*M5/4
=23
4E-
4E-
2.E-
==
*-
!!!HAO:    The five remaining songs of the Bear dance were recorded
!!!HAO: by Dog chief, whose father was one of the leading singers
!!!HAO: at the Bear dance in old times and who therefore has
!!!HAO: inherited the right to sing these songs.
!!!HTX: I am like a bear,
!!!HTX: I hold up my hands waiting for the sun to rise.
!!!CNT: Pawnee
!!!TXO: Pawnee
!!!OCY: United States
!!!OCL: Frances Densmore
!!!YOR: Frances Densmore, "Pawnee Music"
!!!YOR: Bulletin 93, page 43, No. 16
!!!PPR: Smithsonian Institution, Bureau of American Ethnology
!!!PPR: Government Printing Office
!!!PDT: 1926
!!!PPP: Washington, DC, United States of America
!!!YEC: Electronic Copyright 2000 David Huron
!!!YER: September 2000
!!!YEN: United States of America
!!!ENC: David Huron
!!!RDT: September 3, 2000
!!!EEV: Release 1.0
!!!AIN: vox
